X: 7541
T: Cock And The Hen, The
R: slip jig
M: 9/8
K: Bminor
|:B3 BAB f2d|B3 BAB dBA|B3 BAB f2g|afd edB dBA:|
|:afd def g2b|afd def edB|afd def g2e|fed edB dBA:|

